X:1
T:[ID 2-122]
T:[ID 2-122]
T:Bezeichnung standardisiert: Menuet [mit Trio] Men\"uet Con Trio
T:Urheber unbekannt Datum in der hier transkribierten schriftlichen Quelle: 1767
C:Urheber unbekannt
C:Datum in der hier transkribierten schriftlichen Quelle: 1767
L:1/8
M:3/4
K:C
V:1 treble 
V:1
 c4 (3Bcd | cGDF E2 | C2 E2 F2 | GFFE E2 | AFFD d2 | B4 c2 | (fe)(dc)(Bc) | d4 G2 :: (dB)(BG) c2 | %9
 (fd)(dB) c2 | dBBG c2 | fddB c2 | agfaAd |{c} B4 c2 | F2 ECDB, | C6 :| %16
[M:3/4]"^Trio" !fermata!c2 c2 c2 | cecG E2 | d2 d2 d2 | dfdB G2 | e2 g2 g2 | (ga)(fe)(dc) | %22
 decBAG | G4 G,2 :: (ga)(fe)(dc) | a2 c2 c2 | fgedcB | g2 B2 B2 | dgfedc | c2 BcdB | c6 :| %31

